src/images/svg/begambleaware.svg

<?xml version="1.0" encoding="UTF-8"?>
<svg xmlns="http://www.w3.org/2000/svg" xmlns:xlink="http://www.w3.org/1999/xlink" width="250" viewBox="0 0 858.7316 108.883889" version="1.1">
<g id="surface1">
<path style=" stroke:none;fill-rule:nonzero;fill:rgb(1.705933%,2.233887%,2.281189%);fill-opacity:1;" d="M 21.652344 62.78125 L 21.652344 83.660156 L 37.894531 83.660156 C 44.082031 84.046875 49.492188 79.792969 49.882813 73.605469 C 49.882813 73.605469 49.882813 73.605469 49.882813 73.222656 C 49.882813 66.648438 44.46875 62.394531 36.347656 62.394531 Z M 21.652344 32.234375 L 21.652344 50.792969 L 36.734375 50.792969 C 42.148438 51.179688 47.175781 47.3125 47.5625 41.898438 C 47.5625 41.515625 47.5625 41.128906 47.5625 41.128906 C 47.5625 36.101563 42.535156 32.234375 35.574219 32.234375 Z M 0 19.859375 L 29.386719 19.859375 C 42.535156 19.859375 47.175781 20.246094 51.039063 21.792969 C 58.386719 25.273438 62.640625 32.234375 62.640625 40.355469 C 62.640625 48.085938 60.320313 51.953125 52.585938 55.820313 C 60.707031 58.527344 66.121094 66.261719 65.347656 74.765625 C 65.347656 87.527344 55.292969 96.035156 40.601563 96.035156 L 0 96.035156 L 0 83.660156 L 5.800781 83.660156 L 5.800781 32.234375 L 0 32.234375 L 0 19.859375 "/>
<path style=" stroke:none;fill-rule:nonzero;fill:rgb(1.705933%,2.233887%,2.281189%);fill-opacity:1;" d="M 114.839844 60.074219 C 114.839844 53.5 109.429688 48.472656 103.242188 48.472656 L 102.855469 48.472656 C 96.28125 48.472656 90.867188 53.5 89.707031 59.6875 Z M 129.535156 77.085938 C 126.828125 89.847656 116.386719 97.582031 102.46875 97.582031 C 86.226563 97.582031 74.242188 84.820313 74.242188 67.035156 C 74.242188 49.246094 86.226563 36.488281 102.46875 36.488281 C 111.359375 36.488281 119.867188 40.738281 124.894531 48.472656 C 128.761719 55.046875 131.082031 62.394531 130.695313 70.128906 L 88.933594 70.128906 C 90.480469 85.207031 100.148438 85.980469 102.855469 85.980469 C 108.269531 86.367188 113.296875 82.5 114.84375 77.472656 L 129.535156 77.085938 "/>
<path style=" stroke:none;fill-rule:nonzero;fill:rgb(1.705933%,2.233887%,2.281189%);fill-opacity:1;" d="M 177.867188 58.140625 L 204.550781 58.140625 L 204.550781 96.035156 L 196.042969 96.035156 L 196.042969 84.046875 C 194.496094 86.753906 192.5625 89.074219 190.242188 91.394531 C 185.214844 95.648438 179.027344 97.96875 172.84375 97.96875 C 155.054688 97.96875 141.136719 80.566406 141.136719 58.140625 C 141.136719 35.714844 155.054688 17.925781 172.457031 17.925781 C 182.121094 17.539063 190.628906 22.953125 195.269531 31.074219 L 195.269531 19.085938 L 203.390625 19.085938 L 203.390625 43.445313 L 194.882813 43.445313 C 194.109375 39.96875 192.5625 36.875 190.628906 34.167969 C 186.761719 29.140625 180.574219 26.046875 174.390625 25.660156 C 165.109375 25.660156 151.1875 33.78125 151.1875 57.367188 C 151.1875 75.929688 161.242188 89.460938 174.390625 89.460938 C 184.828125 89.074219 193.335938 81.339844 195.269531 71.285156 C 195.65625 69.355469 195.65625 67.035156 195.65625 65.101563 L 177.480469 65.101563 L 177.867188 58.140625 "/>
<path style=" stroke:none;fill-rule:nonzero;fill:rgb(1.705933%,2.233887%,2.281189%);fill-opacity:1;" d="M 252.882813 66.261719 L 247.46875 67.035156 C 229.683594 69.355469 223.882813 72.445313 223.882813 79.792969 C 224.269531 86.367188 229.683594 91.007813 235.871094 91.007813 C 244.375 90.621094 251.722656 84.433594 252.882813 75.925781 Z M 269.511719 96.421875 L 252.882813 96.421875 L 252.882813 85.980469 C 249.015625 93.328125 241.28125 97.582031 233.164063 97.582031 C 223.496094 98.355469 214.988281 90.621094 214.214844 80.953125 C 214.214844 80.566406 214.214844 80.179688 214.214844 79.792969 C 214.214844 68.582031 223.882813 63.167969 247.082031 60.847656 L 252.496094 60.460938 L 252.496094 54.660156 C 252.496094 48.085938 247.46875 43.835938 239.351563 43.835938 C 231.230469 43.835938 226.976563 46.539063 225.429688 54.273438 L 216.535156 54.273438 C 217.308594 49.632813 219.628906 45.378906 223.109375 42.285156 C 227.363281 38.808594 233.164063 37.261719 238.574219 37.261719 C 250.5625 37.261719 260.617188 42.675781 260.617188 57.367188 L 260.617188 89.460938 L 268.738281 89.460938 L 269.511719 96.421875 "/>
<path style=" stroke:none;fill-rule:nonzero;fill:rgb(1.705933%,2.233887%,2.281189%);fill-opacity:1;" d="M 293.871094 48.859375 C 296.578125 44.992188 301.605469 36.875 312.429688 36.875 C 320.164063 36.875 324.417969 40.738281 325.964844 48.859375 C 327.511719 46.152344 329.058594 43.835938 331.378906 41.515625 C 334.859375 38.421875 339.109375 36.488281 343.75 36.488281 C 352.644531 36.488281 357.671875 42.285156 357.671875 52.339844 L 357.671875 89.074219 L 365.789063 89.074219 L 365.789063 96.035156 L 349.550781 96.035156 L 349.550781 55.433594 C 349.550781 47.3125 346.84375 43.445313 341.042969 43.445313 C 330.992188 43.445313 325.578125 55.433594 325.578125 59.6875 L 325.578125 89.074219 L 334.085938 89.074219 L 334.085938 96.035156 L 317.070313 96.035156 L 317.070313 54.273438 C 317.070313 46.925781 314.363281 43.835938 308.5625 43.835938 C 299.671875 43.835938 293.097656 55.046875 293.097656 60.460938 L 293.097656 89.460938 L 301.605469 89.460938 L 301.605469 96.421875 L 276.46875 96.421875 L 276.46875 89.460938 L 284.976563 89.460938 L 284.976563 44.605469 L 276.46875 44.605469 L 276.46875 37.648438 L 293.484375 37.648438 L 293.871094 48.859375 "/>
<path style=" stroke:none;fill-rule:nonzero;fill:rgb(1.705933%,2.233887%,2.281189%);fill-opacity:1;" d="M 390.925781 71.675781 C 390.925781 81.339844 398.273438 89.074219 407.550781 89.847656 C 417.605469 89.847656 423.792969 80.953125 423.792969 66.648438 C 423.792969 52.339844 417.21875 43.835938 407.550781 43.835938 C 399.046875 43.835938 390.539063 53.113281 390.539063 61.621094 Z M 374.683594 16.378906 L 390.925781 16.378906 L 390.925781 50.019531 C 393.246094 45.765625 399.816406 37.261719 409.871094 37.261719 C 423.019531 37.261719 433.070313 50.792969 433.070313 67.808594 C 433.070313 83.660156 422.246094 97.195313 409.871094 97.195313 C 399.433594 97.195313 394.40625 90.234375 390.925781 85.59375 L 390.925781 96.421875 L 374.296875 96.421875 L 374.296875 89.460938 L 382.417969 89.460938 L 382.417969 23.339844 L 374.683594 23.339844 L 374.683594 16.378906 "/>
<path style=" stroke:none;fill-rule:nonzero;fill:rgb(1.705933%,2.233887%,2.281189%);fill-opacity:1;" d="M 438.03125 16.378906 L 454.660156 16.378906 L 454.660156 89.460938 L 462.394531 89.460938 L 462.394531 96.421875 L 437.644531 96.421875 L 437.644531 89.460938 L 446.152344 89.460938 L 446.152344 22.953125 L 438.03125 22.953125 L 438.03125 16.378906 "/>
<path style=" stroke:none;fill-rule:nonzero;fill:rgb(1.705933%,2.233887%,2.281189%);fill-opacity:1;" d="M 510.726563 62.394531 C 510.726563 56.980469 508.792969 51.953125 504.925781 47.699219 C 502.222656 45.378906 498.738281 43.835938 495.261719 44.21875 C 487.914063 44.605469 481.726563 49.632813 479.792969 56.59375 C 479.40625 58.527344 478.632813 60.460938 478.632813 62.394531 Z M 519.234375 80.179688 C 518.460938 83.660156 516.914063 86.367188 514.59375 89.074219 C 509.953125 94.488281 503.382813 97.582031 496.035156 97.582031 C 480.179688 97.582031 468.96875 85.207031 468.96875 67.421875 C 468.96875 50.40625 480.179688 37.261719 494.488281 37.261719 C 508.792969 37.261719 520.394531 48.472656 520.394531 68.96875 L 478.246094 68.96875 C 479.019531 77.472656 480.953125 82.5 484.820313 86.367188 C 487.914063 89.074219 491.78125 90.621094 495.648438 90.621094 C 502.222656 90.621094 506.472656 87.527344 509.566406 80.566406 L 519.234375 80.179688 "/>
<path style=" stroke:none;fill-rule:nonzero;fill:rgb(1.705933%,2.233887%,2.281189%);fill-opacity:1;" d="M 565.246094 34.167969 L 555.195313 68.195313 L 575.300781 68.195313 Z M 555.96875 19.859375 L 574.527344 19.859375 L 595.796875 84.046875 L 601.59375 84.046875 L 601.59375 96.421875 L 584.195313 96.421875 L 579.167969 79.792969 L 552.101563 79.792969 L 547.074219 96.421875 L 529.285156 96.421875 L 529.285156 84.046875 L 535.089844 84.046875 L 555.96875 19.859375 "/>
<path style=" stroke:none;fill-rule:nonzero;fill:rgb(1.705933%,2.233887%,2.281189%);fill-opacity:1;" d="M 600.820313 38.035156 L 624.023438 38.035156 L 624.023438 49.246094 L 618.222656 49.246094 L 626.34375 83.660156 L 636.007813 38.035156 L 651.089844 38.035156 L 660.757813 82.886719 L 668.488281 49.246094 L 662.6875 49.246094 L 662.6875 38.035156 L 685.890625 38.035156 L 685.890625 49.246094 L 680.863281 49.246094 L 668.488281 96.035156 L 653.023438 96.035156 L 643.355469 55.820313 L 634.074219 96.035156 L 618.609375 96.035156 L 605.847656 49.246094 L 600.820313 49.246094 L 600.820313 38.035156 "/>
<path style=" stroke:none;fill-rule:nonzero;fill:rgb(1.705933%,2.233887%,2.281189%);fill-opacity:1;" d="M 726.878906 68.96875 C 713.34375 70.128906 704.449219 71.285156 704.449219 79.40625 C 704.449219 84.046875 708.316406 87.140625 714.117188 87.140625 C 721.078125 87.140625 726.878906 81.726563 727.261719 74.765625 L 727.261719 68.96875 Z M 740.796875 85.207031 L 745.824219 85.207031 L 745.824219 96.421875 L 727.648438 96.421875 L 727.648438 89.460938 C 723.394531 94.875 716.824219 97.582031 709.863281 97.582031 C 698.261719 97.582031 689.367188 89.847656 689.367188 79.40625 C 689.367188 62.394531 708.703125 60.460938 727.261719 58.914063 C 727.261719 50.019531 724.171875 47.3125 716.824219 47.3125 C 709.476563 47.3125 706.769531 50.792969 706.382813 56.207031 L 706.382813 56.59375 L 692.464844 56.207031 C 693.234375 44.605469 702.515625 37.261719 716.4375 37.261719 C 732.675781 37.261719 741.183594 44.605469 741.183594 57.753906 L 740.796875 85.207031 "/>
<path style=" stroke:none;fill-rule:nonzero;fill:rgb(1.705933%,2.233887%,2.281189%);fill-opacity:1;" d="M 773.238281 47.3125 C 777.105469 39.96875 781.359375 36.875 787.933594 36.875 C 790.253906 36.875 792.1875 37.261719 794.507813 37.648438 L 794.507813 51.179688 C 792.1875 50.792969 789.867188 50.40625 787.546875 50.40625 C 780.199219 50.019531 774.011719 55.433594 773.628906 62.394531 L 773.628906 84.820313 L 780.585938 84.820313 L 780.585938 96.035156 L 753.519531 96.035156 L 753.519531 84.820313 L 759.320313 84.820313 L 759.320313 49.246094 L 753.519531 49.246094 L 753.519531 38.035156 L 773.238281 38.035156 L 773.238281 47.3125 "/>
<path style=" stroke:none;fill-rule:nonzero;fill:rgb(1.705933%,2.233887%,2.281189%);fill-opacity:1;" d="M 837.8125 60.074219 C 837.8125 53.5 832.402344 48.472656 826.214844 48.472656 L 825.828125 48.472656 C 819.253906 48.472656 813.839844 53.5 812.679688 59.6875 Z M 852.894531 77.085938 C 850.1875 89.847656 839.746094 97.582031 825.828125 97.582031 C 809.585938 97.582031 797.601563 84.820313 797.601563 67.035156 C 797.601563 49.246094 809.585938 36.488281 825.828125 36.488281 C 834.722656 36.488281 843.226563 40.738281 848.253906 48.472656 C 852.121094 55.046875 854.441406 62.394531 854.054688 70.128906 L 812.292969 70.128906 C 813.839844 85.207031 823.507813 85.980469 826.214844 85.980469 C 831.628906 86.367188 836.652344 82.5 838.199219 77.472656 L 852.894531 77.085938 "/>
</g>
</svg>

<svg xmlns="http://www.w3.org/2000/svg" width="250" viewBox="0 0 858.732 108.884"><g fill="#040606"><path d="M21.652 62.781v20.88h16.243c6.187.386 11.597-3.868 11.988-10.056v-.382c0-6.575-5.414-10.828-13.535-10.828zm0-30.547v18.559h15.082c5.414.387 10.442-3.48 10.828-8.895v-.77c0-5.026-5.027-8.894-11.988-8.894zM0 19.86h29.387c13.148 0 17.789.387 21.652 1.934 7.348 3.48 11.602 10.441 11.602 18.562 0 7.73-2.32 11.598-10.055 15.465 8.121 2.707 13.535 10.442 12.762 18.946 0 12.761-10.055 21.27-24.746 21.27H0V83.66h5.8V32.234H0V19.86M114.84 60.074c0-6.574-5.41-11.601-11.598-11.601h-.387c-6.574 0-11.988 5.027-13.148 11.215zm14.695 17.012c-2.707 12.762-13.148 20.496-27.066 20.496-16.242 0-28.227-12.762-28.227-30.547 0-17.789 11.985-30.547 28.227-30.547 8.89 0 17.398 4.25 22.426 11.985 3.867 6.574 6.187 13.922 5.8 21.656H88.934c1.546 15.078 11.214 15.851 13.921 15.851 5.415.387 10.442-3.48 11.989-8.507l14.691-.387M177.867 58.14h26.684v37.895h-8.508V84.047c-1.547 2.707-3.48 5.027-5.8 7.348-5.028 4.253-11.216 6.574-17.4 6.574-17.788 0-31.706-17.403-31.706-39.828 0-22.426 13.918-40.215 31.32-40.215 9.664-.387 18.172 5.027 22.813 13.148V19.086h8.12v24.36h-8.507c-.774-3.477-2.32-6.571-4.254-9.278-3.867-5.027-10.055-8.121-16.238-8.508-9.282 0-23.203 8.121-23.203 31.707 0 18.563 10.054 32.094 23.203 32.094 10.437-.387 18.945-8.121 20.879-18.176.386-1.93.386-4.25.386-6.183H177.48l.387-6.961M252.883 66.262l-5.414.773c-17.785 2.32-23.586 5.41-23.586 12.758.387 6.574 5.8 11.215 11.988 11.215 8.504-.387 15.852-6.574 17.012-15.082zm16.629 30.16h-16.63V85.98c-3.866 7.348-11.6 11.602-19.718 11.602-9.668.773-18.176-6.96-18.95-16.629v-1.16c0-11.211 9.669-16.625 32.868-18.945l5.414-.387v-5.8c0-6.575-5.027-10.825-13.144-10.825-8.122 0-12.375 2.703-13.922 10.437h-8.895c.774-4.64 3.094-8.894 6.574-11.988 4.254-3.476 10.055-5.023 15.465-5.023 11.988 0 22.043 5.414 22.043 20.105v32.094h8.121l.774 6.96M293.871 48.86c2.707-3.868 7.734-11.985 18.559-11.985 7.734 0 11.988 3.863 13.535 11.984 1.547-2.707 3.094-5.023 5.414-7.343 3.48-3.094 7.73-5.028 12.371-5.028 8.895 0 13.922 5.797 13.922 15.852v36.734h8.117v6.961h-16.238V55.434c0-8.121-2.707-11.989-8.508-11.989-10.05 0-15.465 11.989-15.465 16.242v29.387h8.508v6.961H317.07V54.273c0-7.347-2.707-10.437-8.507-10.437-8.891 0-15.465 11.21-15.465 16.625v29h8.507v6.96H276.47v-6.96h8.508V44.605h-8.508v-6.957h17.015l.387 11.211M390.926 71.676c0 9.664 7.347 17.398 16.625 18.172 10.054 0 16.242-8.895 16.242-23.2 0-14.308-6.574-22.812-16.242-22.812-8.504 0-17.012 9.277-17.012 17.785zm-16.242-55.297h16.242v33.64c2.32-4.253 8.89-12.757 18.945-12.757 13.149 0 23.2 13.531 23.2 30.547 0 15.851-10.825 29.386-23.2 29.386-10.437 0-15.465-6.96-18.945-11.601v10.828h-16.63V89.46h8.122V23.34h-7.734v-6.961M438.031 16.379h16.63V89.46h7.734v6.96h-24.75v-6.96h8.507V22.953h-8.12V16.38M510.727 62.395c0-5.415-1.934-10.442-5.801-14.696-2.703-2.32-6.188-3.863-9.664-3.48-7.348.386-13.535 5.414-15.469 12.375-.387 1.933-1.16 3.867-1.16 5.8zm8.507 17.785c-.773 3.48-2.32 6.187-4.64 8.894-4.64 5.414-11.211 8.508-18.559 8.508-15.855 0-27.066-12.375-27.066-30.16 0-17.016 11.21-30.16 25.52-30.16 14.304 0 25.906 11.21 25.906 31.707h-42.149c.774 8.504 2.707 13.531 6.574 17.398 3.094 2.707 6.961 4.254 10.828 4.254 6.575 0 10.825-3.094 13.918-10.055l9.668-.386M565.246 34.168l-10.05 34.027H575.3zm-9.277-14.309h18.558l21.27 64.188h5.797v12.375h-17.399l-5.027-16.629h-27.066l-5.028 16.629h-17.789V84.047h5.805l20.879-64.188M600.82 38.035h23.203v11.211h-5.8l8.12 34.414 9.665-45.625h15.082l9.668 44.852 7.73-33.64h-5.8V38.034h23.203v11.211h-5.028l-12.375 46.79h-15.465l-9.668-40.216-9.28 40.215h-15.466l-12.761-46.789h-5.028v-11.21M726.879 68.969c-13.535 1.16-22.43 2.316-22.43 10.437 0 4.64 3.867 7.735 9.668 7.735 6.961 0 12.762-5.414 13.145-12.375v-5.797zm13.918 16.238h5.027v11.215h-18.176V89.46c-4.253 5.414-10.824 8.121-17.785 8.121-11.601 0-20.496-7.734-20.496-18.176 0-17.011 19.336-18.945 37.895-20.492 0-8.894-3.09-11.602-10.438-11.602-7.347 0-10.054 3.481-10.441 8.895v.387l-13.918-.387c.77-11.602 10.05-18.945 23.972-18.945 16.239 0 24.747 7.343 24.747 20.492l-.387 27.453M773.238 47.313c3.867-7.344 8.121-10.438 14.696-10.438 2.32 0 4.254.387 6.574.773V51.18c-2.32-.387-4.64-.774-6.961-.774-7.348-.386-13.535 5.028-13.918 11.989V84.82h6.957v11.215H753.52V84.82h5.8V49.246h-5.8v-11.21h19.718v9.276M837.813 60.074c0-6.574-5.41-11.601-11.598-11.601h-.387c-6.574 0-11.988 5.027-13.148 11.215zm15.082 17.012c-2.707 12.762-13.149 20.496-27.067 20.496-16.242 0-28.226-12.762-28.226-30.547 0-17.789 11.984-30.547 28.226-30.547 8.895 0 17.399 4.25 22.426 11.985 3.867 6.574 6.187 13.922 5.8 21.656h-41.761c1.547 15.078 11.215 15.851 13.922 15.851 5.414.387 10.437-3.48 11.984-8.507l14.696-.387"/></g></svg>
